TrafficJam2023/images/main-page/bg.svg

<svg xmlns="http://www.w3.org/2000/svg" width="1214" height="1483" fill="none" viewBox="0 0 1214 1483"><g filter="url(#a)" opacity="0.3"><path fill="url(#b)" d="M343.747 373.642c-2.698 1.489 4.695-5.727 4.833-5.828a3408.97 3408.97 0 0 1 16.521-12.015c14.634-10.586 29.303-21.066 44.029-31.348 45.628-31.859 91.573-62.655 137.992-91.713 110.707-69.3 228.946-142.858 349.109-159.677 50.153-7.02 113.699.423 139.819 77.909 47.69 141.434-58.192 269.334-127.566 328.312C764.123 602.009 598.936 663.653 443.38 743.15c-49.975 25.539-100.314 51.641-147.948 86.41-18.421 13.446-43.864 29.241-56.804 55.044-1.328 2.647 1.925-6.042 2.481-9.272 1.251-7.266 1.285-14.871.605-22.284-2.021-22.009-11.154-47.848-25.184-56.914-2.218-1.433 4.666 1.844 7.04 2.445 4.942 1.251 9.942 1.96 14.938 2.427 14.631 1.367 29.339.773 43.963-.468 42.939-3.644 85.669-13.007 128.102-23.404 166.83-40.877 331.182-102.33 497.106-150.651a1747.743 1747.743 0 0 1 47.282-13.03c48.979-12.787 155.699-52.248 182.719 38.28 16.73 56.012-8.73 105.693-38.45 134.007-67.82 64.619-151.244 98.413-225.822 139.303-25.82 14.156-51.645 28.288-77.4 42.717-35.498 19.886-70.883 40.26-105.981 61.75-44.215 27.08-88.072 55.88-130.487 89.11-50.335 39.44-184.462 146.48-115.852 255.85 9.097 14.51 19.768 26.35 30.821 37.07 2.505 2.43-9.475-5.45-10.407-6.25-5.803-4.96-11.549-10.41-16.846-16.57-18.385-21.38-33.095-49.17-33.646-85.95-1.313-87.76 68.025-160.08 108.486-204.2C631.17 979.612 754.99 892.44 874.489 801.55c46.665-35.492 136.871-92.087 173.431-146.656 1.03-1.543-1.76 3.528-2.45 5.478-1.12 3.223-2.08 6.566-2.78 10.066-1.96 9.664-2.42 20.061-1.29 30.041 2.96 26.026 16.62 51.964 34.54 55.084 1.22.213-2.46-.032-3.69.107-2.35.268-4.71.71-7.05 1.183-7.13 1.437-14.2 3.57-21.24 5.812-21.38 6.813-42.52 15.666-63.541 24.695-64.63 27.755-128.615 58.962-192.784 89.094-160.347 75.293-365.473 181.836-532.871 185.976-77.986 1.93-174.828-37.1-183.197-180.17-7.135-121.974 54.249-209.209 119.313-259.891C329.398 514.47 500.519 478.904 650.587 424.937c54.093-19.453 108.206-39.99 160.962-66.896 23.331-11.899 46.433-25.018 68.761-40.859 20.999-14.897 126.46-105.725 55.594-130.153-6.877-2.37-13.867-3.91-20.88-4.967-11.881-1.79-23.849-2.232-35.781-1.989-94.592 1.928-189.71 36.801-280.827 72.897-86.049 34.088-171.05 74.522-254.669 120.672Z"/></g><defs><linearGradient id="b" x1="248.75" x2="938.97" y1="575.195" y2="524.488" gradientUnits="userSpaceOnUse"><stop stop-color="#FB25FF"/><stop offset="0.54658" stop-color="#4B75FF"/><stop offset="1" stop-color="#0BFFC4"/></linearGradient><filter id="a" width="1214" height="1483" x="0" y="0" color-interpolation-filters="sRGB" filterUnits="userSpaceOnUse"><feFlood flood-opacity="0" result="BackgroundImageFix"/><feBlend in="SourceGraphic" in2="BackgroundImageFix" result="shape"/><feGaussianBlur result="effect1_foregroundBlur_150_325" stdDeviation="35.5"/></filter></defs></svg>

<svg width="1214" height="1483" viewBox="0 0 1214 1483" fill="none" xmlns="http://www.w3.org/2000/svg">
<g opacity="0.3" filter="url(#filter0_f_150_325)">
<path d="M343.747 373.642C341.049 375.131 348.442 367.915 348.58 367.814C354.08 363.785 359.588 359.787 365.101 355.799C379.735 345.213 394.404 334.733 409.13 324.451C454.758 292.592 500.703 261.796 547.122 232.738C657.829 163.438 776.068 89.8803 896.231 73.0608C946.384 66.0408 1009.93 73.4843 1036.05 150.97C1083.74 292.404 977.858 420.304 908.484 479.282C764.123 602.009 598.936 663.653 443.38 743.15C393.405 768.689 343.066 794.791 295.432 829.56C277.011 843.006 251.568 858.801 238.628 884.604C237.3 887.251 240.553 878.562 241.109 875.332C242.36 868.066 242.394 860.461 241.714 853.048C239.693 831.039 230.56 805.2 216.53 796.134C214.312 794.701 221.196 797.978 223.57 798.579C228.512 799.83 233.512 800.539 238.508 801.006C253.139 802.373 267.847 801.779 282.471 800.538C325.41 796.894 368.14 787.531 410.573 777.134C577.403 736.257 741.755 674.804 907.679 626.483C923.41 621.901 939.176 617.574 954.961 613.453C1003.94 600.666 1110.66 561.205 1137.68 651.733C1154.41 707.745 1128.95 757.426 1099.23 785.74C1031.41 850.359 947.986 884.153 873.408 925.043C847.588 939.199 821.763 953.331 796.008 967.76C760.51 987.646 725.125 1008.02 690.027 1029.51C645.812 1056.59 601.955 1085.39 559.54 1118.62C509.205 1158.06 375.078 1265.1 443.688 1374.47C452.785 1388.98 463.456 1400.82 474.509 1411.54C477.014 1413.97 465.034 1406.09 464.102 1405.29C458.299 1400.33 452.553 1394.88 447.256 1388.72C428.871 1367.34 414.161 1339.55 413.61 1302.77C412.297 1215.01 481.635 1142.69 522.096 1098.57C631.17 979.612 754.99 892.44 874.489 801.55C921.154 766.058 1011.36 709.463 1047.92 654.894C1048.95 653.351 1046.16 658.422 1045.47 660.372C1044.35 663.595 1043.39 666.938 1042.69 670.438C1040.73 680.102 1040.27 690.499 1041.4 700.479C1044.36 726.505 1058.02 752.443 1075.94 755.563C1077.16 755.776 1073.48 755.531 1072.25 755.67C1069.9 755.938 1067.54 756.38 1065.2 756.853C1058.07 758.29 1051 760.423 1043.96 762.665C1022.58 769.478 1001.44 778.331 980.419 787.36C915.789 815.115 851.804 846.322 787.635 876.454C627.288 951.747 422.162 1058.29 254.764 1062.43C176.778 1064.36 79.9356 1025.33 71.5667 882.26C64.4321 760.286 125.816 673.051 190.88 622.369C329.398 514.47 500.519 478.904 650.587 424.937C704.68 405.484 758.793 384.947 811.549 358.041C834.88 346.142 857.982 333.023 880.31 317.182C901.309 302.285 1006.77 211.457 935.904 187.029C929.027 184.659 922.037 183.119 915.024 182.062C903.143 180.272 891.175 179.83 879.243 180.073C784.651 182.001 689.533 216.874 598.416 252.97C512.367 287.058 427.366 327.492 343.747 373.642Z" fill="url(#paint0_linear_150_325)"/>
</g>
<defs>
<filter id="filter0_f_150_325" x="0" y="0" width="1214" height="1483" filterUnits="userSpaceOnUse" color-interpolation-filters="sRGB">
<feFlood flood-opacity="0" result="BackgroundImageFix"/>
<feBlend mode="normal" in="SourceGraphic" in2="BackgroundImageFix" result="shape"/>
<feGaussianBlur stdDeviation="35.5" result="effect1_foregroundBlur_150_325"/>
</filter>
<linearGradient id="paint0_linear_150_325" x1="248.75" y1="575.195" x2="938.97" y2="524.488" gradientUnits="userSpaceOnUse">
<stop stop-color="#FB25FF"/>
<stop offset="0.54658" stop-color="#4B75FF"/>
<stop offset="1" stop-color="#0BFFC4"/>
</linearGradient>
</defs>
</svg>
